X:1
T:Krakovienne
T:Krakovienne
T:No.1 from Suite Polonaise, Op.23
T:Felix Blumenfeld (1863-1931) 
C:Felix Blumenfeld (1863-1931)
%%score { 1 | 2 } { ( 3 6 7 ) | ( 4 5 ) }
L:1/8
Q:1/4=116
M:2/4
K:Eb
V:1 treble nm="Grand Piano"
V:2 bass 
V:3 treble nm="Piano"
V:6 treble 
V:7 treble 
V:4 bass 
V:5 bass 
V:1
"^Allegretto giocoso." z4 | z4 | z4 | z4 | z4 | z4 | z4 | z4 | z4 | z4 | z4 | z4 | z4 | z4 | z4 | %15
 z4 | z4 | z4 | z4 | z4 | z4 | z4 | z4 | z4 | z4 | z4 | z4 | z4 | z4 | z4 | z4 | z4 | z4 | z4 | %34
 z4 | z4 | z4 | z4 | z4 | z4 | z4 | z4 | z4[Q:1/4=100] | %43
[Q:1/4=90] z4[Q:1/4=80][Q:1/4=70][Q:1/4=60] | %44
[Q:1/4=116]"^a tempo, ma più tranquillo\nnon legato\n" z4 | z4 | z4 | z4 | z4 | z4 | z4 | z4 | z4 | %53
 z4 | z4 | z4 | z4 | z4 | z4 | z4 | z4 | z4 | z4 | z4 | z4 | z4 | z4 | z4 | z4 | z4 | z4 | z4 | %72
 z4 | z4 | z4 | z4 | z4 | z4 | z4 | z4 | z4 | z4 | z4 | z4 | z4 | z4 | z4 | z4 | z4 | z4 | z4 | %91
 z4 | z4 | z4 | z4 | z4 |!ppp! G2!f! !>![Bdb]B, | [EBe].[ee'] z2 |] %98
V:2
 z4 | z4 | z4 | z4 | z4 | z4 | z4 | z4 | z4 | z4 | z4 | z4 | z4 | z4 | z4 | z4 | z4 | z4 | z4 | %19
 z4 | z4 | z4 | z4 | z4 | z4 | z4 | z4 | z4 | z4 | z4 | z4 | z4 | z4 | z4 | z4 | z4 | z4 | z4 | %38
 z4 | z4 | z4 | z4 | z4 | z4 | z4 | z4 | z4 | z4 | z4 | z4 | z4 | z4 | z4 | z4 | z4 | z4 | z4 | %57
 z4 | z4 | z4 | z4 | z4 | z4 | z4 | z4 | z4 | z4 | z4 | z4 | z4 | z4 | z4 | z4 | z4 | z4 | z4 | %76
 z4 | z4 | z4 | z4 | z4 | z4 | z4 | z4 | z4 | z4 | z4 | z4 | z4 | z4 | z4 | z4 | z4 | z4 | z4 | %95
 z4 |"^Ossia" z2 [F,B,D_A][B,,B,] | [B,,E,G,].[E,,,E,,] z2 |] %98
V:3
!p! (Gg ce | (3d/e/d/=A/c/ BD | Gg ce | (3d/e/d/=A/c/ BD | G2 BD | G2 BD | G4-) | %7
 G2!f! !>![Bb].B, | !>![Ee]!mf! (e'ac' | (3b/c'/b/f/a/ gd) | (ee' ac' | (3b/c'/b/f/a/ gB) | %12
 (e/f/ [ceg]2 [Bdgb]) | (e/f/) ([ceg]2!<(! [=Aeg=a]!<)! | %14
!f! .[=Bdg=b])[Gdg]-!p! [Gdg]/G/([=Ac]/e/) | (3([=Bd]/e/d/)[=Ac]/[GB]/ Ad | %16
 (G!>![Gdg]-) [Gdg]/G/[=Ac]/e/ | (3([=Bd]/e/d/)[=Ac]/[GB]/ Ad | (3([=Bd]/e/d/)[=Ac]/[GB]/ Ad | %19
 (3([=Bd]/e/d/)[=Ac]/[GB]/ Ad | dg dg |!<(! dg dg!<)! |!mf! ([Be][ee'] ac' | (3b/c'/b/f/a/ gd) | %24
 (ee' ac' | (3b/c'/b/f/a/ gB) | (e/f/)"_cresc." ([ceg]2 [Bdgb]) | ([ceg]/=a/) ([Bdgb]2 [cgc']) | %28
 ([dgb]/c'/) ([dgbd']2 [egbe']) | [dgbd'][egbe'] [cfbc'][f=ac'f'] | %30
!ff! ([Bdb]!>![bb']) z/!f! b/([c'e']/g'/) | ([d'f']/4g'/4f'/)[c'e']/[bd']/ c'f' | %32
 (B.[Bdb]) z/!mf! B/([ce]/g/) | ([df]/4g/4f/)[ce]/[Bd]/ cf | ([df]/4g/4f/)[ce]/[Bd]/ cf | %35
 ([df]/4g/4f/)[ce]/[Bd]/ cf | (fb) (fb) | (fb) (fb) |!f! [ce]/B/.[Acea] z"_m.g." (g/f/ | %39
 =e/f/g/f/{_ef} e/d/e/c/) |!p! [AB]/[Gc]/[Fd]/[ce]/ [df]/[c^f]/([Bg]/[eb]/) | %41
 [Ba]/[cg]/!<(![df]/[ec']/ [fd']/[^fc']/([gb]/e'/)!<)! |!f! ([cd]/B/!>![Aca]) z!p! (g/f/ | %43
 =e/f/g/)z/4f/4{_ef} .e/.d/.e/>.[Ac]/ |!p! [G=B]/[Ac]/[Bd]/[ce]/ [df]/{/a}[eg]/[df]/[ce]/ | %45
 [=Bd]/[Ac]/[GB]/[FA]/ [EG]/[DF]/[EG]/[FA]/ | [G=B]/[Ac]/[Bd]/[ce]/ [df]/{/a}[eg]/[df]/[ce]/ | %47
 [=Bd]/[Ac]/[GB]/[FA]/ [EG]/[DF]/E/[D-F]/ | .[DG] G3- | G2 D2 | G G3- | G2 D2 | z2 D2 | z2 D2 | %54
!pp! (Gg ce | (3d/e/d/=A/c/ BD | Gg ce | (3d/e/d/=A/c/ BD | G2 BD | G2 BD | G4-) | %61
 G2!f! !>![Bb].B, | !>![Ee]!mf! (e'ac' |!p! (3b/c'/b/f/a/ gd) | (ee' ac' | (3b/c'/b/f/a/ gB) | %66
 (e/f/)"_cresc." ([ceg]2 .[Bdgb]) |!mp!!<(! ([ceg]/=a/) ([Bdgb]2 [cgac']!<)! | %68
!f! .[d^f=ad'])!arpeggio!.[dfad'] z/ (d/[=eg]/b/) | ([^f=a]/4b/4a/)[=eg]/[df]/ ea | %70
 D!arpeggio!!>![D^F=Ad] z/ (D/[=EG]/B/) | ([^F=A]/4B/4A/)[=EG]/[DF]/ EA | %72
 ([^F=A]/4B/4A/)[=EG]/[DF]/ EA | .=A.d Bd |!p!"_crescendo poco" .=A.d Bd | dg eg | dg eg | %77
!f! e_a ac' | c'e' e'f' | e'a' e'a' |!<(! e'a' f'b'!<)! | %81
!ff!!8va(! [g'b']/[f'a']/[g'e'']/e'/ [d'f']/[c'e']/[bd']/b'/!8va)! | %82
 [gb]/[fa]/[ge']/e/ [df]/[ce]/[Bd]/b/ | [GB]/[FA]/[Ge]/E/ [DF]/[CE]/[B,D]/B/ | %84
 [GB]/[FA]/[Ge]/E/ [DF]/[CE]/[B,D]/B/ | [GB]/[FA]/[Ge]/E/ [GB]/[FA]/[Ge]/E/ | %86
"_dim. poco a poco" [GB]/[FA]/[Ge]/E/ [GB]/[FA]/[Ge]/E/ | ([GB]/[FA]/) ([EGB]2 .[EGc]) | %88
 ([GB]/[FA]/) ([EGB]2!p! .[EGc]) |!pp! (Gg ce | (3d/e/d/=A/c/ BD | Gg ce | (3d/e/d/=A/c/ BD | %93
 G2 BD |!>(! G2 BD | G4-)!>)! |!ppp! G4- | G4 |] %98
V:4
 z4 | z4 | z4 | z4 | z4 | z4 | z4 | z2 !>![F,B,DA].[B,,,B,,] | [E,,B,,G,]2 ([A,EF]2 | %9
 [B,G][CA] [DB][CA] | [B,G])E, ([A,EF]2 | [B,G][CA] [DB][CA]) | [E,B,G][K:treble] ([CEG]2 [G,DG]) | %13
 [EG] ([CEG]2 [CEG] |[K:bass] .[G,,D,=B,])[D,B,] [G,,D,][D,=A,] | [G,,D,][D,=B,] [G,,D,][D,C] | %16
 .[G,,D,=B,][D,B,] [G,,D,][D,=A,] | [G,,D,][D,=B,] [G,,D,][D,C] | [G,,D,][D,=B,] [G,,D,][D,C] | %19
 [G,,D,][D,=B,] [G,,D,][D,C] | [G,,D,][D,=B,] [G,,D,][D,B,] | [G,,D,][D,B,] [G,,D,][D,B,] | %22
 [E,,B,,G,] !>!E3 | ([B,G][CA] [DB][CA] | [B,G])E, ([A,F]2 | [B,G][CA] [DB][CA]) | %26
 [E,B,G] ([CEG]2 [G,DG]) | [CEG] ([G,DG]2 [E,G,CE]) | [E,G,B,E] ([D,G,B,D]2 [C,G,B,C]) | %29
 [D,G,B,D][C,G,B,C] [F,CEF][K:treble][F=Ace] |[K:bass] [F,B,D]!>![B,,B,] .[B,,F,].[F,C] | %31
 .[B,,F,].[F,D] .[B,,F,].[F,E] | [B,,F,][F,D] [B,,F,][F,C] | [B,,F,][F,D] [B,,F,][F,E] | %34
 [B,,F,][F,D] [B,,F,][F,E] | [B,,F,][F,D] [B,,F,][F,E] | [B,,F,][F,D] [B,,F,][F,D] | %37
 [B,,F,][F,D] [B,,F,][F,D] | [F,,,F,,]!>![F,A,CE] z x | x4 | .[B,,B,].[A,D] .[B,,B,].[G,E] | %41
 .[B,,B,].[A,D] .[B,,B,].[G,E] | ([F,,,F,,][D,F,CD]) z x | x4 | !>!D,4- | D,4 | !>!D,4- | D,4 | %48
 [G,,D,=B,][D,B,] [G,,D,][D,=A,] | [G,,D,]D, [G,,D,]D, | [G,,D,=B,][D,B,] [G,,D,][D,=A,] | %51
 [G,,D,]D, [G,,D,]D, | [G,,D,=B,]D, [G,,D,]D, | [G,,D,=B,]D, [G,,D,]D, | G,4- | G,4- | G,4- | %57
 G,4- | G,4- | G,4- | G,4- | G,2 !>![F,B,DA].[B,,,B,,] | [E,,B,,G,]2 [A,EF]2 | %63
 ([B,G][CA] [DB][CA] | [B,G])E, ([A,F]2 | [B,G][CA] [DB][CA]) | [E,B,G] [CEG]2 [G,DG] | %67
 [CEG] [G,DG]2 [E,G,=A,E] |[K:bass] !>![D,^F,=A,D]!p! .=A,,.[D,,A,,].A,, | %69
 .[D,,=A,,].A,, .[D,,A,,].A,, | .[D,,=A,,].A,, .[D,,A,,].A,, | .[D,,=A,,].A,, .[D,,A,,].A,, | %72
 .[D,,=A,,].A,, .[D,,A,,].A,, | .[D,,=A,,].A,, .[D,,A,,].A,, | [D,,=A,,]A,, [D,,A,,]A,, | %75
 [G,,D,]D, [G,,D,]D, | [G,,D,]D, [G,,D,]D, | [F,,F,] [F,_A,CE] z [F,A,CE] | %78
 z[K:treble] [CEFA] z [FAce] | z [Ff][Ee][Cc] |[K:bass] [F,F][C,C] [F,,F,][B,,,B,,] | %81
 .[E,,B,,].[B,,G,] .[E,,B,,].[B,,A,] | .[E,,B,,].[B,,G,] .[E,,B,,].[B,,A,] | %83
 .[E,,B,,].[B,,G,] .[E,,B,,].[B,,A,] | .[E,,B,,].[B,,G,] .[E,,B,,].[B,,A,] | %85
 .[E,,B,,].[B,,G,] .[E,,B,,].[B,,G,] | .[E,,B,,].[B,,G,] .[E,,B,,].[B,,G,] | %87
 .[E,,B,,].[B,,G,] .[C,,G,,].[G,,E,] | .[E,,B,,].[B,,G,] .[C,,G,,].[G,,E,] | [G,,D,]4- | %90
 [G,,D,]4- | [G,,D,]4- | [G,,D,]4- | [G,,D,]4- | [G,,D,]4 | z4 | [E,,B,,] [E,,B,,]2 [E,,B,,]- | %97
 [E,,B,,]4 |] %98
V:5
 x4 | x4 | x4 | x4 | x4 | x4 | x4 | x4 | x4 | E4 | x4 | E4 | x[K:treble] x3 | x4 |[K:bass] x4 | %15
 x4 | x4 | x4 | x4 | x4 | x4 | x4 | x4 |{/E,} E4 | x4 | E4 | x4 | x4 | x4 | x3[K:treble] x | %30
[K:bass] x4 | x4 | x4 | x4 | x4 | x4 | x4 | x4 | x4 | x4 | x4 | x4 | x4 | x4 | %44
 .[G,,D,].[D,=B,] .[F,,D,].[D,A,] | .[G,,D,].[D,=B,] .[A,,D,].[D,C] | %46
 .[G,,D,].[D,=B,] .[F,,D,].[D,A,] | .[G,,D,].[D,=B,] .[A,,D,].[D,C] | x4 | x4 | x4 | x4 | x4 | x4 | %54
 [G,,D,]4- | [G,,D,]4- | [G,,D,]4- | [G,,D,]4- | [G,,D,]4- | [G,,D,]4- | [G,,D,]4- | [G,,D,]2 x2 | %62
 x4 | E4 | x4 | E4 | x4 | x4 |[K:bass] x4 | x4 | x4 | x4 | x4 | x4 | x4 | x4 | x4 | x4 | %78
 x[K:treble] x3 | x4 |[K:bass] x4 | x4 | x4 | x4 | x4 | x4 | x4 | x4 | x4 | x4 | x4 | x4 | x4 | %93
 x4 | x4 | x4 | x4 | E,,, z z2 |] %98
V:6
 x4 | x4 | x4 | x4 | x4 | x4 | x4 | x4 | x4 | x4 | x4 | x4 | x4 | x4 | x4 | x2 (^F/[=EG]/[DF]) | %16
 x4 | x2 (^F/[=EG]/[DF]) | x2 (^F/[=EG]/[DF]) | x2 (^F/[=EG]/[DF]) | %20
 (=B/[=Ac]/[GB]) (B/[Ac]/[GB]) | (B/[=Ac]/[GB]) (B/[Ac]/[GB]) | G/F/[I:staff +1](E [A,F]2) | x4 | %24
 x4 | x4 | x4 | x4 | x4 | x4 | x4 | x2[I:staff -1] (=a/g/f) | x4 | x2 (=A/G/F) | x2 (=A/G/F) | %35
 x2 (=A/G/F) | (d/c/B) (d/c/B) | (d/c/B) (d/c/B) | x3 (e/d/ | ^c/d/_e/d/ =c/=B/c/A/) | x4 | x4 | %42
 x3 (e/d/ | ^c/d/_e/)x/4d/4 .=c/.=B/.c/ z/ | x4 | x4 | x4 | x4 | x D-D/G,/C/E/ | %49
 (3(D/E/D/C/=B,/) =A,[I:staff +1]D, |[I:staff -1] D D-D/(G,/C/E/) | %51
 (3D/E/D/C/=B,/ =A,[I:staff +1]D, |[I:staff -1] (3D/E/D/C/=B,/ =A,[I:staff +1]D, | %53
[I:staff -1] (3D/E/D/C/=B,/ =A,[I:staff +1]D, | x4 | x4 | x4 | x4 | x4 | x4 | x4 | x4 | x4 | x4 | %64
 x4 | x4 | x4 | x4 | x4 | x2[I:staff -1] (^c/=B/=A) | x4 | x2 (^C/=B,/=A,) | x2 (^C/=B,/=A,) | %73
 (^F/[=EG]/[DF]) ([GB]/[D=A]/[I:staff +1]B,) | %74
[I:staff -1] (^F/[=EG]/[DF]) ([GB]/[D=A]/[I:staff +1]B,) | %75
[I:staff -1] (=B/[=Ac]/[GB]) ([ce]/[Gd]/[I:staff +1]E) | %76
[I:staff -1] (=B/[=Ac]/[GB]) ([ce]/[Gd]/[I:staff +1]E) | %77
[I:staff -1] (c/[_Bd]/[_Ac]) ([eg]/[df]/[ce]) | (a/[gb]/[fa]) (c'/[bd']/[ac']) | %79
 (c'/[bd']/[ac']) (c'/[bd']/[ac']) | (c'/[bd']/[ac']) (d'/[c'e']/[bd']) |!8va(! x4!8va)! | x4 | %83
 x4 | x4 | x4 | x4 | x4 | x4 | x4 | x4 | x4 | x4 | x4 | x4 | z4 | [G,E] [G,E]2 [G,E] | [G,E]4 |] %98
V:7
 x4 | x4 | x4 | x4 | x4 | x4 | x4 | x4 | x4 | x4 | x4 | x4 | x4 | x4 | x4 | x4 | x4 | x4 | x4 | %19
 x4 | x4 | x4 | x4 | x4 | x4 | x4 | x4 | x4 | x4 | x4 | x4 | x4 | x4 | x4 | x4 | x4 | x4 | x4 | %38
 x4 | x4 | x4 | x4 | x4 | x4 | x4 | x4 | x4 | x4 | x4 | x4 | x4 | x4 | x4 | x4 | x4 | x4 | x4 | %57
 x4 | x4 | x4 | x4 | x4 | x4 | x4 | x4 | x4 | x4 | x4 | x4 | x4 | x4 | x4 | x4 | x3 G | x3 G | %75
 x3 c | x3 c | x4 | x4 | x4 | x4 |!8va(! x4!8va)! | x4 | x4 | x4 | x4 | x4 | x4 | x4 | x4 | x4 | %91
 x4 | x4 | x4 | x4 | x4 | x4 | x4 |] %98

